2 Export/Icons/Rounded/Refresh.svg

<svg xmlns="http://www.w3.org/2000/svg" xmlns:xlink="http://www.w3.org/1999/xlink" width="24" height="24" viewBox="0 0 24 24">
  <defs>
    <path id="refresh-a" d="M17.65 6.35a7.95 7.95 0 0 0-6.48-2.31c-3.67.37-6.69 3.35-7.1 7.02C3.52 15.91 7.27 20 12 20a7.98 7.98 0 0 0 7.21-4.56c.32-.67-.16-1.44-.9-1.44-.37 0-.72.2-.88.53a5.994 5.994 0 0 1-6.8 3.31c-2.22-.49-4.01-2.3-4.48-4.52A6.002 6.002 0 0 1 12 6c1.66 0 3.14.69 4.22 1.78l-1.51 1.51c-.63.63-.19 1.71.7 1.71H19c.55 0 1-.45 1-1V6.41c0-.89-1.08-1.34-1.71-.71l-.64.65z"/>
  </defs>
  <g fill="none" fill-rule="evenodd">
    <polygon points="0 0 24 0 24 24 0 24"/>
    <mask id="refresh-b" fill="#fff">
      <use xlink:href="#refresh-a"/>
    </mask>
    <use fill="#000" xlink:href="#refresh-a"/>
    <g fill="#000" mask="url(#refresh-b)">
      <rect width="24" height="24"/>
    </g>
  </g>
</svg>

<svg xmlns="http://www.w3.org/2000/svg" xmlns:xlink="http://www.w3.org/1999/xlink" width="24" height="24" viewBox="0 0 24 24">
  <defs>
    <path id="refresh-a" d="M17.65,6.35 C16.02,4.72 13.71,3.78 11.17,4.04 C7.5,4.41 4.48,7.39 4.07,11.06 C3.52,15.91 7.27,20 12,20 C15.19,20 17.93,18.13 19.21,15.44 C19.53,14.77 19.05,14 18.31,14 C17.94,14 17.59,14.2 17.43,14.53 C16.3,16.96 13.59,18.5 10.63,17.84 C8.41,17.35 6.62,15.54 6.15,13.32 C5.31,9.44 8.26,6 12,6 C13.66,6 15.14,6.69 16.22,7.78 L14.71,9.29 C14.08,9.92 14.52,11 15.41,11 L19,11 C19.55,11 20,10.55 20,10 L20,6.41 C20,5.52 18.92,5.07 18.29,5.7 L17.65,6.35 Z"/>
  </defs>
  <g fill="none" fill-rule="evenodd">
    <polygon points="0 0 24 0 24 24 0 24"/>
    <mask id="refresh-b" fill="#fff">
      <use xlink:href="#refresh-a"/>
    </mask>
    <use fill="#000" xlink:href="#refresh-a"/>
    <g fill="#000" mask="url(#refresh-b)">
      <rect width="24" height="24"/>
    </g>
  </g>
</svg>
